X:6
T:T003- Blair Drummond's Reel
S: Bremner's Reels, p. 87 (1761), R. Bride's 24 CDs for 1770
Q:1/4=120
L:1/4
M:C
K:G lydian
e/|A/4A/4A/ ~ce/a/e/c/|A/4A/4A/ ~cB/g/B/G/|\
A/4A/4A/~ce/a/e/(f/|g/)a/e/f/ g/d/B/G/::\
a(e/4f/4^g/) a/e/c/A/|ae/f/ g/d/B/G/|\
ae/f/ f/a/e/(g/|f/)a/e/f/ g/d/B/G/:|]

